assets/social/globe.svg

<svg xmlns="http://www.w3.org/2000/svg" viewBox="0 0 512 512" xmlns:v="https://vecta.io/nano"><path d="M437 75C337-25 175.1-25 75 75-25 175-25 336.9 75 437c100 100 261.9 100 362 0 100-100 100-261.9 0-362zm-10.7 325.5c-12-10.7-24.7-20.2-38.2-28.3 8.9-30.8 14.2-64.7 15.4-99.9h75.2c-3.4 47.5-21.6 92-52.4 128.2h0zm-393-128.2h75.2c1.2 35.2 6.5 69.1 15.4 99.9-13.5 8.2-26.3 17.6-38.2 28.3-30.8-36.2-49-80.7-52.4-128.2zm52.4-160.8c12 10.7 24.7 20.2 38.2 28.3-8.9 30.8-14.2 64.7-15.4 99.9H33.3c3.4-47.5 21.6-92 52.4-128.2zm154 31.7a221.75 221.75 0 0 1-76-19.3c13.8-35.6 39.3-78.3 76-88.9v108.2zm0 32.7v63.8h-98.5c1.1-29.8 5.3-58.4 12.4-84.6 26.9 11.8 56 18.9 86.1 20.8zm0 96.4v63.8c-30.1 1.9-59.2 8.9-86.2 20.7-7-26.2-11.2-54.8-12.4-84.6h98.6zm0 96.5V477c-36.7-10.6-62.2-53.3-76-88.9 23.7-10.8 49.4-17.4 76-19.3zm32.6 0a221.75 221.75 0 0 1 76 19.3c-13.8 35.6-39.3 78.3-76 88.9V368.8zm0-32.7v-63.8h98.5c-1.1 29.8-5.3 58.4-12.4 84.6-26.9-11.8-56-18.9-86.1-20.8h0zm0-96.4v-63.8c30.1-1.9 59.2-8.9 86.2-20.7 7 26.2 11.2 54.8 12.4 84.6h-98.6zm0-96.5V35c36.7 10.6 62.2 53.3 76 88.9-23.7 10.8-49.4 17.4-76 19.3zm73.3-91.9c20.9 9.1 40.4 21.5 57.8 36.9-8.3 7.3-17.1 14-26.2 19.9-8.2-20.1-18.6-39.7-31.6-56.8zm-210.7 56.8c-9.2-5.9-17.9-12.6-26.2-19.9 17.5-15.4 36.9-27.8 57.8-36.9-13.1 17.1-23.5 36.7-31.6 56.8h0zm0 295.8c8.1 20.1 18.5 39.7 31.6 56.8-20.9-9.1-40.4-21.5-57.8-36.9 8.2-7.4 17-14 26.2-19.9zm242.2 0c9.2 5.9 17.9 12.6 26.2 19.9-17.5 15.4-36.9 27.8-57.8 36.9 13.1-17.1 23.5-36.7 31.6-56.8h0zm26.4-164.2c-1.2-35.2-6.5-69.1-15.4-99.9 13.5-8.2 26.3-17.6 38.2-28.3 30.8 36.2 49.1 80.7 52.5 128.2h-75.3z" fill="#fff"/></svg>

<?xml version="1.0" encoding="utf-8"?>
<!-- Generator: Adobe Illustrator 25.4.1, SVG Export Plug-In . SVG Version: 6.00 Build 0)  -->
<svg version="1.1" id="Layer_1" xmlns="http://www.w3.org/2000/svg" xmlns:xlink="http://www.w3.org/1999/xlink" x="0px" y="0px"
	 viewBox="0 0 512 512" style="enable-background:new 0 0 512 512;" xml:space="preserve">
<style type="text/css">
	.st0{fill:#FFFFFF;}
</style>
<path class="st0" d="M437,75C337-25,175.1-25,75,75C-25,175-25,336.9,75,437c100,100,261.9,100,362,0C537,337,537,175.1,437,75z
	 M426.3,400.5c-12-10.7-24.7-20.2-38.2-28.3c8.9-30.8,14.2-64.7,15.4-99.9h75.2C475.3,319.8,457.1,364.3,426.3,400.5L426.3,400.5z
	 M33.3,272.3h75.2c1.2,35.2,6.5,69.1,15.4,99.9c-13.5,8.2-26.3,17.6-38.2,28.3C54.9,364.3,36.7,319.8,33.3,272.3z M85.7,111.5
	c12,10.7,24.7,20.2,38.2,28.3c-8.9,30.8-14.2,64.7-15.4,99.9H33.3C36.7,192.2,54.9,147.7,85.7,111.5z M239.7,143.2
	c-26.6-1.9-52.2-8.5-76-19.3c13.8-35.6,39.3-78.3,76-88.9V143.2z M239.7,175.9v63.8h-98.5c1.1-29.8,5.3-58.4,12.4-84.6
	C180.5,166.9,209.6,174,239.7,175.9z M239.7,272.3v63.8c-30.1,1.9-59.2,8.9-86.2,20.7c-7-26.2-11.2-54.8-12.4-84.6H239.7z
	 M239.7,368.8V477c-36.7-10.6-62.2-53.3-76-88.9C187.4,377.3,213.1,370.7,239.7,368.8z M272.3,368.8c26.6,1.9,52.2,8.5,76,19.3
	c-13.8,35.6-39.3,78.3-76,88.9V368.8z M272.3,336.1v-63.8h98.5c-1.1,29.8-5.3,58.4-12.4,84.6C331.5,345.1,302.4,338,272.3,336.1
	L272.3,336.1z M272.3,239.7v-63.8c30.1-1.9,59.2-8.9,86.2-20.7c7,26.2,11.2,54.8,12.4,84.6H272.3z M272.3,143.2V35
	c36.7,10.6,62.2,53.3,76,88.9C324.6,134.7,298.9,141.3,272.3,143.2z M345.6,51.3c20.9,9.1,40.4,21.5,57.8,36.9
	c-8.3,7.3-17.1,14-26.2,19.9C369,88,358.6,68.4,345.6,51.3z M134.9,108.1c-9.2-5.9-17.9-12.6-26.2-19.9
	c17.5-15.4,36.9-27.8,57.8-36.9C153.4,68.4,143,88,134.9,108.1L134.9,108.1z M134.9,403.9c8.1,20.1,18.5,39.7,31.6,56.8
	c-20.9-9.1-40.4-21.5-57.8-36.9C116.9,416.4,125.7,409.8,134.9,403.9z M377.1,403.9c9.2,5.9,17.9,12.6,26.2,19.9
	c-17.5,15.4-36.9,27.8-57.8,36.9C358.6,443.6,369,424,377.1,403.9L377.1,403.9z M403.5,239.7c-1.2-35.2-6.5-69.1-15.4-99.9
	c13.5-8.2,26.3-17.6,38.2-28.3c30.8,36.2,49.1,80.7,52.5,128.2H403.5z"/>
</svg>
